X: 34
T:Tarbolton, The
M:4/4
L:1/8
R:reel
K:Edor
D|Eeed e2 BA|GBAF GFEF|Dddc d2 AF|GBAG FDDF|
Eeed efge|fedf edBA|GABG FGA=c|BGAF GE E :|
|:f|gfef g/f/e be|gebe gfef|d2 fd adfd|ABAG FDDF|
G/G/G BG F/F/F AF|Eeef gfed|B2 dB AGFA|BGAF GE E :|

